X: 34382
T: Ri Rings
R: reel
M: 4/4
K: Adorian
|:A2 BA B/c/d ef|feed eaab|c'2 ba ageg|gedB BAAG|
A2 BA B/c/d ef|feed eaab|c'2 ba ageg|gedB A2 BA:|
|:{/b}c'2 ba deed|egge dBBB|eBdB AAAB|deee dggg|
a3 b c'baf|gedB BB e/d/B|A2 BA B/c/d eg|gedB BAAG:|

